X:17600
T:Tommy Reck's
R:jig
S:Fisher Street
H:
N:
D:Fisher Street: Out in the Night
Z:Adrian Scahill
M:6/8
L:1/8
K:G
GAB c2e|dBG AGE|GBd efg|fd^c def|\
g3 afd|cde dBG|GAB ced|BGG G3:||\
GBd g3|edc BcA|GBd efg|fd^c def|\
g3 afd|cde dBG|GAB ced|BGG G3:||


